X: 43329
T: Work Of The Weavers
R: polka
M: 2/4
K: Dmajor
FG|A2 d>d|d3 c|B2 dB|A2 FG|A2 A>A|A2 df|g2 f2|e2 fa|
A2 d>d|d3 c|B2 dB|A2 FG|A2 BA|d2 ef|e4|d2 de|
f2 ff|e2 e2|d2 dd|c3 c|B2 d2|A2 d2|g2 f2|e2 fa|
A2 d>d|d3 c|B2 dB|A2 FG|A2 BA|d2 ef|e4|d2||

